!!!!SEGMENT: pl-kk--kk-i-3--009-001_anonim--per-octavas-kirie.krn
!!!cenid: 15xx:605
!!!COM: Anonim
!!!COM-rismid: pe30004985
!!!CDT:
!!!CNT:
!!!OPR: Per Octavas
!!!OTL: Kirie
!!!OMV: 001
!!!PDT:
!!!AGN:
!!!SMS-siglum: PL-Kk
!!!SMS-shelfmark: Kk.I.3
!!!SMS-shelfwork: 009-001 M
!!!SMS-variant:
!!!SMS-altvar:
!!!NIFC-rismid: 1001145493
!!!system-decoration: [(s1,s2,s3)]
!!!key:
**kern	**text	**kern	**text	**kern	**text
*part3	*part3	*part2	*part2	*part1	*part1
*staff3	*staff3	*staff2	*staff2	*staff1	*staff1
*Ibass	*	*Itenor	*	*Ivox	*
*I"Basso	*	*I"Tenore	*	*I"Canto	*
*I'B.	*	*I'T.	*	*I'C.	*
*clefF4	*	*clefC4	*	*clefC3	*
*k[]	*	*k[]	*	*k[]	*
*a:	*	*a:	*	*a:	*
*M2/1	*	*M2/1	*	*M2/1	*
=1-	=1-	=1-	=1-	=1-	=1-
*2\right	*	*2\right	*	*2\right	*
!LO:TX:a:B:t=Per octauas:color=red	!	!LO:TX:a:B:t=Kyrie per octauas:color=red	!	!LO:TX:a:B:t=Per octauas:color=red	!
!LO:TX:t=P:problem=w źródle nad pięciolinią adnotacja ".d.A.T"	!	!	!	!LO:TX:t=P:problem=w źródle adnotacja ".t." przed pierwszą nutą	!
1AA	Ki-	1A	Kÿ-	1e	Ki-
*	*	*lig	*	*	*
2C/	-ri-	1A	-ri-	2e/	-ri-
2D/	.	.	.	2f\	.
=2-	=2-	=2-	=2-	=2-	=2-
1E	-e-	1G	.	1g	.
*	*	*Xlig	*	*	*
1AA	.	1A	-e	1e	-e-
=3-	=3-	=3-	=3-	=3-	=3-
1A	.	1c	.	2e/	.
.	.	.	.	1f	.
2E/	.	1B	.	.	.
2G/	.	.	.	1e\	.
=4-	=4-	=4-	=4-	=4-	=4-
1F	.	1A	.	.	.
.	.	.	.	2d/	.
1E	.	1G	.	1e	.
=5-	=5-	=5-	=5-	=5-	=5-
1AA	.	0A	.	1e	.
*custos:C	*	*	*	*	*
1AA	.	.	.	0e	.
!LO:LB:g=original	!	!	!	!	!
=6-	=6-	=6-	=6-	=6-	=6-
1C	.	1G	.	.	.
*lig	*	*	*	*	*
*	*	*	*	*custos:d	*
1D	.	1F	.	2f\	.
!	!	!	!	!LO:LB:g=original	!
.	.	.	.	1d\	.
=7-	=7-	=7-	=7-	=7-	=7-
1AA	.	1E	.	.	.
.	.	.	.	2c/	.
*Xlig	*	*	*	*	*
*lig	*	*	*	*	*
1BB	.	1D	.	1d	.
=8-	=8-	=8-	=8-	=8-	=8-
1AA	.	0E	.	1c	.
*Xlig	*	*	*	*	*
2AA/	.	.	.	2c/	.
2C/	.	.	.	2e/	.
=9-	=9-	=9-	=9-	=9-	=9-
1BB	.	1G	.	1d	.
*	*	*lig	*	*	*
2AA/	.	1A	.	1c	.
1A\	.	.	.	.	.
=10-	=10-	=10-	=10-	=10-	=10-
.	.	1D	.	1f	.
2F\	.	.	.	.	.
*	*	*Xlig	*	*lig	*
2G\	.	1E	.	1e	.
2E/	.	.	.	.	.
=11-	=11-	=11-	=11-	=11-	=11-
1D	.	1F	.	1d	.
*	*	*	*	*Xlig	*
0C	.	0G	.	0e	.
=12-	=12-	=12-	=12-	=12-	=12-
.	.	.	.	.	.
1D	.	1F	.	1d	.
=13-	=13-	=13-	=13-	=13-	=13-
*	*	*custos:D	*	*	*
1AA	.	1E	.	2c/	.
.	.	.	.	1e	.
!	!	!LO:LB:g=original	!	!	!
1BB	.	1D	e-	.	.
.	.	.	.	1d\	.
=14-	=14-	=14-	=14-	=14-	=14-
*custos:A	*	*	*	*	*
1AA	.	1E	-lej-	.	.
.	.	.	.	2c/	.
!LO:LB:g=original	!	!	!	!	!
1A	-ley-	1F	-ſon	1d	-ley-
=15-	=15-	=15-	=15-	=15-	=15-
*	*	*	*	*custos:e	*
!	!	!LO:TX:t=P:problem=kreska pseudotaktowa	!	!	!
0A;<	-ſon	0D	.	0d;;	-son
.	.	.	.	.	.
!	!	!	!	!LO:LB:g=original	!
=16-	=16-	=16||	=16||	=16-	=16-
1AA	Cri-	1A	Chri-	1e	Cri-
*	*	*lig	*	*	*
1AA	-ste-	1A	-ſte	1e	-ste-
=17-	=17-	=17-	=17-	=17-	=17-
0E	.	0G	.	0e	.
*	*	*Xlig	*	*	*
=18-	=18-	=18-	=18-	=18-	=18-
1F	.	1A	.	2c/	.
.	.	.	.	1d	.
2C/	.	1G	.	.	.
2E/	.	.	.	1c\	.
=19-	=19-	=19-	=19-	=19-	=19-
1D	.	1F	.	.	.
.	.	.	.	2B/	.
0C	.	0G	.	1c	.
=20-	=20-	=20-	=20-	=20-	=20-
.	.	.	.	0c	.
*	*	*lig	*	*	*
2FF/	.	1A	.	.	.
1F\	.	.	.	.	.
=21-	=21-	=21-	=21-	=21-	=21-
*	*	*	*	*lig	*
.	.	1F	.	1f	.
2D/	.	.	.	.	.
*	*	*Xlig	*	*	*
1E	.	1G	.	1e	.
*	*	*	*	*Xlig	*
=22-	=22-	=22-	=22-	=22-	=22-
*custos:A	*	*	*	*	*
2AA/	.	1A	.	1e	.
!LO:LB:g=original	!	!	!	!	!
1A	.	.	.	.	.
.	.	1E	.	2e/	.
1G\	.	.	.	2c/	.
=23-	=23-	=23-	=23-	=23-	=23-
.	.	1D	.	1d	.
2F\	.	.	.	.	.
2G\	.	1E	.	2B/	.
2E/	.	.	.	2c/	.
=24-	=24-	=24-	=24-	=24-	=24-
1D	.	1F	.	1d	.
*	*	*	*	*custos:d	*
0C	.	0G	.	0e	.
!	!	!	!	!LO:PB:g=original	!
=25-	=25-	=25-	=25-	=25-	=25-
.	.	.	.	.	.
*lig	*	*	*	*	*
1D	.	1F	.	1d	.
=26-	=26-	=26-	=26-	=26-	=26-
1AA	.	1E	.	2c/	.
.	.	.	.	1e	.
*Xlig	*	*	*	*	*
*lig	*	*	*	*	*
1BB	.	1D	e-	.	.
.	.	.	.	1d\	.
=27-	=27-	=27-	=27-	=27-	=27-
1AA	.	1E	-leÿ-	.	.
.	.	.	.	2c/	.
*Xlig	*	*lig	*	*	*
1A	-ley-	1F	.	1d	-ley-
=28-	=28-	=28-	=28-	=28-	=28-
*	*	*custos:D	*	*	*
!	!	!LO:TX:t=P:problem=kreska pseudotaktowa	!	!	!
0A;<	-son	0D	-ſon	0d;>	-ſon
!	!	!LO:LB:g=original	!	!	!
*	*	*Xlig	*	*	*
=29-	=29-	=29	=29	=29-	=29-
*lig	*	*	*	*	*
1D	Ki-	1D	Ky-	1d	Ki-
1AA	.	1A	.	1e	.
*Xlig	*	*	*	*	*
=30-	=30-	=30-	=30-	=30-	=30-
*	*	*lig	*	*	*
2C/	-ri-	1A	-ri-	2e/	-ri-
*custos:E	*	*	*	*	*
2D/	.	.	.	2f\	.
!LO:LB:g=original	!	!	!	!	!
1E	.	1G	.	1g	.
*	*	*Xlig	*	*	*
=31-	=31-	=31-	=31-	=31-	=31-
1AA	.	1A	-e-	1e	-e-
*	*	*	*	*custos:f	*
1A	-e-	1c	.	2e/	.
!	!	!	!	!LO:LB:g=original	!
.	.	.	.	2f\	.
=32-	=32-	=32-	=32-	=32-	=32-
*	*	*lig	*	*	*
2G\	.	1B	.	1g	.
2E/	.	.	.	.	.
1G	.	1G	.	2d/	.
.	.	.	.	2e\	.
*	*	*Xlig	*	*	*
=33-	=33-	=33-	=33-	=33-	=33-
*	*	*lig	*	*	*
2D/	.	1B	.	2f\	.
2E/	.	.	.	2e\	.
1F	.	1A	.	1c	.
*	*	*Xlig	*	*	*
=34-	=34-	=34-	=34-	=34-	=34-
*lig	*	*	*	*	*
1D	.	1B	.	1d	.
*	*	*lig	*	*	*
1C	.	1c	.	1e	.
*Xlig	*	*	*	*	*
=35-	=35-	=35-	=35-	=35-	=35-
*lig	*	*	*	*	*
1F	.	1A	.	2f\	.
.	.	.	.	2d/	.
*	*	*Xlig	*	*	*
1E	.	1G	.	1e	.
*Xlig	*	*	*	*	*
=36-	=36-	=36-	=36-	=36-	=36-
0AA	.	0A	.	0e	.
=37-	=37-	=37-	=37-	=37-	=37-
2AA/	.	1A	.	1e	.
1A	.	.	.	.	.
.	.	1c	.	2e\	.
*	*	*	*	*custos:d	*
2F/	.	.	.	2f\	.
!	!	!	!	!LO:LB:g=original	!
=38-	=38-	=38-	=38-	=38-	=38-
2G/	.	1B	.	2d/	.
*custos:F	*	*	*	*	*
2E/	.	.	.	2e\	.
!LO:PB:g=original	!	!	!	!	!
1F	.	1A	.	1c	.
=39-	=39-	=39-	=39-	=39-	=39-
1C	.	1G	.	1c	.
1D	.	1F	.	2A/	.
.	.	.	.	1d\	.
=40-	=40-	=40-	=40-	=40-	=40-
1AA	.	1E	.	.	.
.	.	.	.	2c/	.
2BB/	.	1D	.	2d/	.
!LO:TX:t=P::problem=w źródle błędnie zapisana minima, dopisana drua cauda żeby zwrócić uwagę na błąd&colon; tu ma być semibrevis	!	!	!	!	!
1D\	.	.	.	1f\	.
=41-	=41-	=41-	=41-	=41-	=41-
.	.	0G	-ley-	.	.
2C/	.	.	.	2c/	.
1BB	-leÿ-	.	.	1d	-leÿ-
=42-	=42-	=42-	=42-	=42-	=42-
*	*	*custos:D	*	*	*
!	!	!LO:TX:t=P:problem=kreska pseudotaktowa	!	!	!
0AA;	-son	0A	-ſon	0c;>	-son
!	!	!LO:LB:g=original	!	!	!
=43-	=43-	=43	=43	=43-	=43-
*lig	*	*	*	*	*
1D	Ki-	1D	Ky-	1d	Ki-
1AA	.	1A	-ri-	1e	.
*Xlig	*	*	*	*	*
=44-	=44-	=44-	=44-	=44-	=44-
*	*	*lig	*	*	*
*	*	*	*	*custos:f	*
!	!	!	!	!LO:TX:a:t=P:problem=w źródle znak custos ledwo widoczny	!
2C/	.	1A	-e-	2e/	-ri-
!	!	!	!	!LO:LB:g=original	!
2D/	.	.	.	2f\	.
1E	-ri-	1G	.	1g	.
*	*	*Xlig	*	*	*
=45-	=45-	=45-	=45-	=45-	=45-
*custos:A	*	*	*	*	*
1AA	-e-	1A	.	1e	-e-
!LO:LB:g=original	!	!	!	!	!
1A	.	1c	.	2e\	.
.	.	.	.	2f\	.
=46-	=46-	=46-	=46-	=46-	=46-
*	*	*lig	*	*	*
2G\	.	1B	.	1g	.
2E/	.	.	.	.	.
1G	.	1G	.	2d/	.
.	.	.	.	2e\	.
*	*	*Xlig	*	*	*
=47-	=47-	=47-	=47-	=47-	=47-
*	*	*lig	*	*	*
2D/	.	1B	.	2f\	.
2E/	.	.	.	2e\	.
1F	.	1A	.	1c	.
*	*	*Xlig	*	*	*
=48-	=48-	=48-	=48-	=48-	=48-
*lig	*	*	*	*	*
1D	.	1B	.	1d	.
*	*	*lig	*	*	*
1C	.	1c	.	1e	.
*Xlig	*	*	*	*	*
=49-	=49-	=49-	=49-	=49-	=49-
*lig	*	*	*	*	*
1F	.	1A	.	2f\	.
.	.	.	.	2d/	.
*	*	*Xlig	*	*	*
1E	.	1G	.	1e	.
*Xlig	*	*	*	*	*
=50-	=50-	=50-	=50-	=50-	=50-
0AA	.	0A	.	0e	.
=51-	=51-	=51-	=51-	=51-	=51-
*lig	*	*	*	*	*
1D	.	1D	.	1d	.
!	!	!	!	!LO:LB:g=original	!
1AA	.	1A	.	1e	.
*Xlig	*	*	*	*	*
=52-	=52-	=52-	=52-	=52-	=52-
2C/	.	1A	.	2e/	.
2D/	.	.	.	2f\	.
1E	.	1G	.	1g	.
=53-	=53-	=53-	=53-	=53-	=53-
2AA/	.	1A	.	1e	.
1A	.	.	.	.	.
.	.	1c	.	2e\	.
*custos:G	*	*	*	*	*
2A\	.	.	.	2f\	.
!LO:LB:g=original	!	!	!	!	!
=54-	=54-	=54-	=54-	=54-	=54-
2G\	.	1B	.	1g	.
2E/	.	.	.	.	.
1G	.	1G	.	2d/	.
.	.	.	.	2e\	.
=55-	=55-	=55-	=55-	=55-	=55-
2D/	.	1B	.	2f\	.
2E/	.	.	.	2e\	.
1F	.	1A	.	1c	.
=56-	=56-	=56-	=56-	=56-	=56-
*lig	*	*	*	*	*
1D	.	1B	.	1d	.
1C	.	1c	.	1e	.
*Xlig	*	*	*	*	*
=57-	=57-	=57-	=57-	=57-	=57-
*lig	*	*	*	*	*
1F	.	1A	.	2f\	.
.	.	.	.	2d/	.
1E	.	1G	.	1e	.
*Xlig	*	*	*	*	*
!	!	!	!	!LO:LB:g=original	!
=58-	=58-	=58-	=58-	=58-	=58-
!	!	!LO:TX:t=P:problem=w źródle najprawdopodobniej brakuje jednej nuty	!	!	!
0AA	.	1A	.	0e	.
.	.	1ryy	.	.	.
!	!	!LO:PB:g=original	!	!	!
=59-	=59-	=59-	=59-	=59-	=59-
2AA/	.	1A	.	1e	.
1A	.	.	.	.	.
.	.	1c	.	2e/	.
2F/	.	.	.	2f/	.
=60-	=60-	=60-	=60-	=60-	=60-
2G\	.	1B	.	2d/	.
2E/	.	.	.	2e/	.
1F	.	1A	.	1c	.
=61-	=61-	=61-	=61-	=61-	=61-
*lig	*	*	*	*	*
1C	.	1G	.	1c	.
1D	.	1F	.	2A/	.
.	.	.	.	1d\	.
*Xlig	*	*	*	*	*
=62-	=62-	=62-	=62-	=62-	=62-
1AA	.	1E	.	.	.
.	.	.	.	2c/	.
2BB/	.	1D	-leÿ-	2d/	.
*custos:C	*	*	*	*	*
1D\	.	.	.	1f\	.
!LO:LB:g=original	!	!	!	!	!
=63-	=63-	=63-	=63-	=63-	=63-
.	.	0G	-ſon	.	.
2C/	.	.	.	2c/	.
1BB	-ley-	.	.	1d	-ley-
=64-	=64-	=64-	=64-	=64-	=64-
!LO:TX:a:t=P:problem=w źródle brak kreski końcowej	!	!	!	!	!
!	!	!	!	!LO:TX:a:t=P:problem=w źródle brak kreski końcowej	!
0AA;>	-son	0A	.	0c;>	-ſon
==	==	==	==	==	==
*-	*-	*-	*-	*-	*-
!!title: @{OTL};
!!!RDF**kern: > = above
!!!RDF**kern: < = below
!!!RDF**kern: | = vertical stroke
!!!RDF**kern: N = linked
!!!RDF**kern: i = editorial accidental
!!!RDF**kern: l = terminal long
!!!AIN: 1 bass 1 tenor 1 vox
!!!ENC: Mateusz Solarz
!!!END: 2021-12-30
!!!EED: Wojciech Jakubiak-Danek
!!!EST: 2022-01-02
!!!URL-scan: http://repozytorium.nifc.pl/skany/pl-kk-nut--i-3
!!!ONB-nifc: UWAGA: Discantus (s. 48r-49r, skan 0050-0051), Tenor (s. 35r-v, skan 0207-0208), Bassus (s. 45v-46r, skan 0349)
